svg/map/hours_fill.svg

<?xml version="1.0" encoding="UTF-8"?>
<svg width="24px" height="24px" viewBox="0 0 24 24" version="1.1" xmlns="http://www.w3.org/2000/svg" xmlns:xlink="http://www.w3.org/1999/xlink">
    <title>hours_fill</title>
    <g id="Icon" stroke="none" stroke-width="1" fill="none" fill-rule="evenodd">
        <g id="Map" transform="translate(-624.000000, -144.000000)">
            <g id="hours_fill" transform="translate(624.000000, 144.000000)">
                <path d="M24,0 L24,24 L0,24 L0,0 L24,0 Z M12.5935,23.2578 L12.5819,23.2595 L12.5109,23.295 L12.4919,23.2987 L12.4767,23.295 L12.4057,23.2595 C12.3958,23.2564 12.387,23.259 12.3821,23.2649 L12.378,23.2758 L12.3609,23.7031 L12.3659,23.7235 L12.3769,23.7357 L12.4805,23.8097 L12.4953,23.8136 L12.5071,23.8097 L12.6107,23.7357 L12.6233,23.7197 L12.6267,23.7031 L12.6096,23.2758 C12.6076,23.2657 12.601,23.2593 12.5935,23.2578 Z M12.8584,23.1453 L12.8445,23.1473 L12.6598,23.2397 L12.6499,23.2499 L12.6472,23.2611 L12.6651,23.6906 L12.6699,23.7034 L12.6784,23.7105 L12.8793,23.8032 C12.8914,23.8069 12.9022,23.803 12.9078,23.7952 L12.9118,23.7812 L12.8777,23.1665 C12.8753,23.1546 12.8674,23.147 12.8584,23.1453 Z M12.143,23.1473 C12.1332,23.1424 12.1222,23.1453 12.1156,23.1526 L12.1099,23.1665 L12.0758,23.7812 C12.0751,23.7927 12.0828,23.8019 12.0926,23.8046 L12.1083,23.8032 L12.3092,23.7105 L12.3186,23.7024 L12.3225,23.6906 L12.3404,23.2611 L12.3372,23.2485 L12.3278,23.2397 L12.143,23.1473 Z" id="MingCute" fill-rule="nonzero"></path>
                <path d="M17.0299,14.7577 C17.1638,14.2219 17.7068,13.8961 18.2425,14.0301 C18.7400286,14.1544357 19.0564857,14.6315158 18.9919476,15.1280272 L18.9702,15.2428 L18.2808,18.0002 L19,18.0002 L19,17.0002 C19,16.448 19.4477,16.0002 20,16.0002 C20.51285,16.0002 20.9355092,16.3863133 20.9932725,16.8835945 L21,17.0002 L21,18.0002 C21.5523,18.0002 22,18.448 22,19.0002 C22,19.51305 21.613973,19.9357092 21.1166239,19.9934725 L21,20.0002 L21,21.0002 C21,21.5525 20.5523,22.0002 20,22.0002 C19.48715,22.0002 19.0644908,21.614173 19.0067275,21.1168239 L19,21.0002 L19,20.0002 L17,20.0002 C16.6921,20.0002 16.4013,19.8584 16.2118,19.6156 C16.0493714,19.4075714 15.9768694,19.1453224 16.0065108,18.886537 L16.0299,18.7577 L17.0299,14.7577 Z M13.4999937,14.0002 C14.8807,14.0002 15.9999937,15.1195 15.9999937,16.5002 L15.9999937,16.8252 C15.9999937,17.4995 15.7588,18.1516 15.3199,18.6636 L14.1742,20.0002 L14.9999937,20.0002 C15.5523,20.0002 15.9999937,20.448 15.9999937,21.0002 C15.9999937,21.5525 15.5523,22.0002 14.9999937,22.0002 L11.9999937,22.0002 C11.6095,22.0002 11.2547,21.7729 11.0915,21.4181 C10.9283,21.0633 10.9866,20.646 11.2408,20.3494 L13.8014,17.362 C13.9296,17.2125 13.9999937,17.0221 13.9999937,16.8252 L13.9999937,16.5002 C13.9999937,16.2241 13.7762,16.0002 13.4999937,16.0002 C13.2239,16.0002 12.9999937,16.2241 12.9999937,16.5002 C12.9999937,17.0525 12.5523,17.5002 11.9999937,17.5002 C11.4477,17.5002 10.9999937,17.0525 10.9999937,16.5002 C10.9999937,15.1195 12.1193,14.0002 13.4999937,14.0002 Z M12,3 C16.9706,3 21,7.02944 21,12 C21,12.6564 20.9297,13.2964 20.7963,13.9129 C20.455,13.0373 19.7087,12.335 18.7276,12.0898 C17.7278,11.8398 16.7197,12.1235 16.0037,12.7605 C15.288,12.2803 14.4267,12.0002 13.5,12.0002 C11.0148,12.0002 9.00004,14.0149 9.00004,16.5002 C9.00004,17.3858 9.38375,18.1817 9.99397,18.7309 L9.72227,19.0478 C9.35996,19.4706 9.13033,19.9751 9.04162,20.5025 C5.52432,19.2788 3,15.9342 3,12 C3,7.02944 7.02944,3 12,3 Z M11,6 C10.4477,6 10,6.44772 10,7 L10,10 L9,10 C8.44772,10 8,10.4477 8,11 C8,11.5523 8.44772,12 9,12 L11,12 C11.5523,12 12,11.5523 12,11 L12,7 C12,6.44772 11.5523,6 11,6 Z" id="形状" fill="#09244B"></path>
            </g>
        </g>
    </g>
</svg>

<svg xmlns="http://www.w3.org/2000/svg" width="24" height="24"><g fill="none" fill-rule="evenodd"><path d="M24 0v24H0V0h24ZM12.594 23.258l-.012.002-.071.035-.02.004-.014-.004-.071-.036c-.01-.003-.019 0-.024.006l-.004.01-.017.428.005.02.01.013.104.074.015.004.012-.004.104-.074.012-.016.004-.017-.017-.427c-.002-.01-.009-.017-.016-.018Zm.264-.113-.014.002-.184.093-.01.01-.003.011.018.43.005.012.008.008.201.092c.012.004.023 0 .029-.008l.004-.014-.034-.614c-.003-.012-.01-.02-.02-.022Zm-.715.002a.023.023 0 0 0-.027.006l-.006.014-.034.614c0 .012.007.02.017.024l.015-.002.201-.093.01-.008.003-.011.018-.43-.003-.012-.01-.01-.184-.092Z"/><path fill="#09244B" d="M17.03 14.758a1 1 0 0 1 1.962.37l-.022.115L18.28 18H19v-1a1 1 0 0 1 1.993-.116L21 17v1a1 1 0 0 1 .117 1.993L21 20v1a1 1 0 0 1-1.993.117L19 21v-1h-2a1 1 0 0 1-.993-1.113l.023-.13 1-4ZM13.5 14a2.5 2.5 0 0 1 2.5 2.5v.325c0 .675-.241 1.327-.68 1.839L14.174 20H15a1 1 0 0 1 0 2h-3a1 1 0 0 1-.76-1.65l2.561-2.988a.825.825 0 0 0 .199-.537V16.5a.5.5 0 1 0-1 0 1 1 0 1 1-2 0 2.5 2.5 0 0 1 2.5-2.5ZM12 3a9 9 0 0 1 8.796 10.913 2.996 2.996 0 0 0-2.068-1.823c-1-.25-2.008.034-2.724.67A4.5 4.5 0 0 0 9 16.5c0 .886.384 1.682.994 2.23l-.272.318a2.998 2.998 0 0 0-.68 1.455A9 9 0 0 1 12 3Zm-1 3a1 1 0 0 0-1 1v3H9a1 1 0 1 0 0 2h2a1 1 0 0 0 1-1V7a1 1 0 0 0-1-1Z"/></g></svg>
